public/assets/img/start3.svg

<svg width="55" height="66" viewBox="0 0 55 66" fill="none" xmlns="http://www.w3.org/2000/svg">
<path d="M48.5142 26.3791H23.7217C24.8682 25.0723 25.5648 23.3676 25.5648 21.5035C25.5648 17.4013 22.1995 14.064 18.063 14.064C13.9264 14.064 10.5612 17.4013 10.5612 21.5035C10.5612 23.3676 11.2577 25.0723 12.4041 26.3791H6.48585C2.90955 26.3791 0 29.2645 0 32.8111V40.4007C0 41.1112 0.580743 41.6871 1.29717 41.6871C2.0136 41.6871 2.59434 41.1112 2.59434 40.4007V32.8111C2.59434 30.6831 4.34007 28.9519 6.48585 28.9519H42.8066C44.9524 28.9519 46.6981 30.6831 46.6981 32.8111V39.7576H33.2076C29.6313 39.7576 26.7217 42.643 26.7217 46.1896C26.7217 49.7362 29.6313 52.6215 33.2076 52.6215H46.6981V59.568C46.6981 61.696 44.9524 63.4272 42.8066 63.4272H6.48585C4.34007 63.4272 2.59434 61.696 2.59434 59.568V51.9683C2.59434 51.2578 2.0136 50.6819 1.29717 50.6819C0.580743 50.6819 0 51.2578 0 51.9683V59.568C0 63.1146 2.90955 66 6.48585 66H48.5142C52.0905 66 55 63.1146 55 59.568V32.8111C55 29.2645 52.0905 26.3791 48.5142 26.3791ZM18.063 16.6369C20.769 16.6369 22.9704 18.82 22.9704 21.5036C22.9704 24.1871 20.769 26.3703 18.063 26.3703C15.3571 26.3703 13.1555 24.1871 13.1555 21.5036C13.1555 18.82 15.3569 16.6369 18.063 16.6369ZM47.9918 28.9519H48.5142C50.6599 28.9519 52.4057 30.6831 52.4057 32.8111V39.7576H49.2925V32.8111C49.2925 31.3643 48.808 30.0277 47.9918 28.9519ZM29.316 46.1896C29.316 44.0616 31.0618 42.3304 33.2076 42.3304H52.4057V50.0487H33.2076C31.0618 50.0487 29.316 48.3175 29.316 46.1896ZM48.5142 63.4272H47.9918C48.808 62.3514 49.2925 61.015 49.2925 59.568V52.6215H52.4057V59.568C52.4057 61.696 50.6599 63.4272 48.5142 63.4272Z" fill="#90A1AE"/>
<path d="M32.8755 44.9031C32.533 44.9031 32.1984 45.0407 31.9571 45.28C31.7158 45.5192 31.5783 45.8511 31.5783 46.1894C31.5783 46.5278 31.7158 46.8597 31.9571 47.0989C32.1996 47.3382 32.533 47.4758 32.8755 47.4758C33.2166 47.4758 33.55 47.3382 33.7926 47.0989C34.0338 46.8597 34.1726 46.5278 34.1726 46.1894C34.1726 45.8511 34.0338 45.5192 33.7926 45.28C33.5513 45.0406 33.2166 44.9031 32.8755 44.9031Z" fill="#90A1AE"/>
<path d="M36.937 17.7085C41.0736 17.7085 44.4388 14.3712 44.4388 10.269C44.4388 6.16696 41.0736 2.82955 36.937 2.82955C32.8005 2.82955 29.4352 6.16683 29.4352 10.269C29.4352 14.3712 32.8005 17.7085 36.937 17.7085ZM36.937 5.40246C39.6429 5.40246 41.8445 7.5856 41.8445 10.2691C41.8445 12.9527 39.6431 15.1358 36.937 15.1358C34.231 15.1358 32.0296 12.9527 32.0296 10.2691C32.0296 7.5856 34.231 5.40246 36.937 5.40246Z" fill="#90A1AE"/>
<path d="M24.2676 12.6814C24.984 12.6814 25.5648 12.1055 25.5648 11.395V1.28639C25.5648 0.575918 24.984 0 24.2676 0C23.5512 0 22.9704 0.575918 22.9704 1.28639V11.395C22.9704 12.1055 23.5512 12.6814 24.2676 12.6814Z" fill="#90A1AE"/>
<path d="M18.0412 8.23291C18.7576 8.23291 19.3383 7.65699 19.3383 6.94652V1.28639C19.3383 0.575918 18.7576 0 18.0412 0C17.3247 0 16.744 0.575918 16.744 1.28639V6.94652C16.744 7.65699 17.3247 8.23291 18.0412 8.23291Z" fill="#90A1AE"/>
<path d="M1.29717 47.4758C1.63833 47.4758 1.973 47.3382 2.21427 47.0989C2.45554 46.8597 2.59434 46.5278 2.59434 46.1894C2.59434 45.8511 2.45554 45.5192 2.21427 45.28C1.973 45.0407 1.63962 44.9031 1.29717 44.9031C0.956014 44.9031 0.621344 45.0407 0.380071 45.28C0.138797 45.5192 0 45.8511 0 46.1894C0 46.5278 0.138797 46.8597 0.380071 47.0989C0.621344 47.3382 0.955884 47.4758 1.29717 47.4758Z" fill="#90A1AE"/>
</svg>

<svg width="55" height="66" fill="none" xmlns="http://www.w3.org/2000/svg"><path d="M48.514 26.38H23.722a7.37 7.37 0 0 0 1.843-4.877c0-4.102-3.366-7.439-7.502-7.439-4.137 0-7.502 3.337-7.502 7.44a7.37 7.37 0 0 0 1.843 4.875H6.486C2.91 26.38 0 29.265 0 32.811v7.59c0 .71.58 1.286 1.297 1.286s1.297-.576 1.297-1.286v-7.59c0-2.128 1.746-3.86 3.892-3.86h36.32c2.146 0 3.892 1.732 3.892 3.86v6.947h-13.49c-3.577 0-6.486 2.885-6.486 6.432 0 3.546 2.91 6.431 6.486 6.431h13.49v6.947c0 2.128-1.746 3.86-3.891 3.86H6.486c-2.146 0-3.892-1.732-3.892-3.86v-7.6c0-.71-.58-1.286-1.297-1.286-.716 0-1.297.576-1.297 1.286v7.6C0 63.115 2.91 66 6.486 66h42.028C52.09 66 55 63.115 55 59.568V32.811c0-3.546-2.91-6.432-6.486-6.432Zm-30.451-9.743c2.706 0 4.907 2.183 4.907 4.867 0 2.683-2.201 4.866-4.907 4.866s-4.907-2.183-4.907-4.866c0-2.684 2.2-4.867 4.907-4.867Zm29.929 12.315h.522c2.146 0 3.892 1.731 3.892 3.86v6.946h-3.114V32.81a6.364 6.364 0 0 0-1.3-3.86ZM29.316 46.19c0-2.128 1.746-3.86 3.892-3.86h19.198v7.719H33.208c-2.146 0-3.892-1.731-3.892-3.86Zm19.198 17.237h-.522a6.363 6.363 0 0 0 1.3-3.859v-6.947h3.114v6.947c0 2.128-1.746 3.86-3.892 3.86Z" fill="#90A1AE"/><path d="M32.876 44.903a1.29 1.29 0 0 0-1.297 1.286 1.29 1.29 0 0 0 1.297 1.287 1.29 1.29 0 0 0 1.297-1.286 1.29 1.29 0 0 0-1.297-1.287ZM36.937 17.709c4.137 0 7.502-3.338 7.502-7.44s-3.365-7.44-7.502-7.44c-4.136 0-7.502 3.338-7.502 7.44s3.366 7.44 7.502 7.44Zm0-12.307c2.706 0 4.907 2.184 4.907 4.867 0 2.684-2.2 4.867-4.907 4.867-2.706 0-4.907-2.183-4.907-4.867 0-2.683 2.201-4.867 4.907-4.867ZM24.268 12.681c.716 0 1.297-.575 1.297-1.286V1.286c0-.71-.581-1.286-1.297-1.286-.717 0-1.298.576-1.298 1.286v10.109c0 .71.581 1.286 1.298 1.286ZM18.041 8.233c.717 0 1.297-.576 1.297-1.286v-5.66c0-.711-.58-1.287-1.297-1.287-.716 0-1.297.576-1.297 1.286v5.66c0 .711.58 1.287 1.297 1.287ZM1.297 47.476a1.29 1.29 0 0 0 1.297-1.286 1.29 1.29 0 0 0-1.297-1.287A1.29 1.29 0 0 0 0 46.19a1.29 1.29 0 0 0 1.297 1.287Z" fill="#90A1AE"/></svg>
